X: 1
T: MacGregor of Roro
P: Low octave
R: 3/4-time march
S: Boston Scottish Fiddle Club [BSFC] Online workshop with Rua MacMillan 2020-9-21
Z: 2021 John Chambers <jc:trillian.mit.edu>
M: 3/4
L: 1/8
K: Ador
A,B, |\
E2 E2 E>C | B,2 A,2 A,B, | E2 G2 F<A | D2 G,2 DB, |\
D2 E>D B,A, | A,G, G>F ED | B,<D G,2 A,2 | B,2 A,2 :|
|: GE |\
A2 A2 AF/E/ | D2 D2 GE | A2 A2 GF/E/ | D2 G,2 DB, |\
D2 E>D B,A, | A,G, G>F ED | B,<D G,2 A,2 | B,2 A,2 |]
